symbols/web/panorama_photosphere/materialsymbolsoutlined/panorama_photosphere_wght500gradN25fill1_24px.svg

<svg xmlns="http://www.w3.org/2000/svg" height="24" width="24"><path d="M12 21.875q-2.875 0-5.188-1.512Q4.5 18.85 3.3 16.4q-.275-.125-.562-.25-.288-.125-.563-.275-.525-.25-.812-.738-.288-.487-.288-1.062v-4.15q0-.6.288-1.075.287-.475.812-.725.275-.15.563-.275.287-.125.562-.25 1.2-2.45 3.512-3.963Q9.125 2.125 12 2.125q2.875 0 5.175 1.512 2.3 1.513 3.5 3.963.275.125.575.25.3.125.575.275.5.25.8.738.3.487.3 1.062v4.15q0 .575-.3 1.062-.3.488-.8.738-.275.15-.575.275-.3.125-.575.25-1.2 2.45-3.5 3.963-2.3 1.512-5.175 1.512Zm0-1.95q1.625 0 3.1-.675t2.55-1.875q-1.4.325-2.8.487-1.4.163-2.85.163-1.425 0-2.837-.163-1.413-.162-2.813-.487 1.075 1.2 2.55 1.875 1.475.675 3.1.675Zm0-15.85q-1.625 0-3.1.675T6.35 6.625q1.4-.325 2.813-.488 1.412-.162 2.837-.162 1.45 0 2.85.162 1.4.163 2.8.488-1.075-1.2-2.55-1.875-1.475-.675-3.1-.675Z"/></svg>

<svg xmlns="http://www.w3.org/2000/svg" height="24" width="24"><path d="M12 21.875Q9.125 21.875 6.812 20.363Q4.5 18.85 3.3 16.4Q3.025 16.275 2.738 16.15Q2.45 16.025 2.175 15.875Q1.65 15.625 1.363 15.137Q1.075 14.65 1.075 14.075V9.925Q1.075 9.325 1.363 8.85Q1.65 8.375 2.175 8.125Q2.45 7.975 2.738 7.85Q3.025 7.725 3.3 7.6Q4.5 5.15 6.812 3.637Q9.125 2.125 12 2.125Q14.875 2.125 17.175 3.637Q19.475 5.15 20.675 7.6Q20.95 7.725 21.25 7.85Q21.55 7.975 21.825 8.125Q22.325 8.375 22.625 8.863Q22.925 9.35 22.925 9.925V14.075Q22.925 14.65 22.625 15.137Q22.325 15.625 21.825 15.875Q21.55 16.025 21.25 16.15Q20.95 16.275 20.675 16.4Q19.475 18.85 17.175 20.363Q14.875 21.875 12 21.875ZM12 19.925Q13.625 19.925 15.1 19.25Q16.575 18.575 17.65 17.375Q16.25 17.7 14.85 17.862Q13.45 18.025 12 18.025Q10.575 18.025 9.163 17.862Q7.75 17.7 6.35 17.375Q7.425 18.575 8.9 19.25Q10.375 19.925 12 19.925ZM12 4.075Q10.375 4.075 8.9 4.75Q7.425 5.425 6.35 6.625Q7.75 6.3 9.163 6.137Q10.575 5.975 12 5.975Q13.45 5.975 14.85 6.137Q16.25 6.3 17.65 6.625Q16.575 5.425 15.1 4.75Q13.625 4.075 12 4.075Z"/></svg>
